assets/images/ui/actionThrust.svg

<svg enable-background="new 0 0 34 34" viewBox="0 0 34 34" xmlns="http://www.w3.org/2000/svg"><g fill="#1e1e1e"><path d="m13.4 33.7 12.4-26-23.8 17.3c2.3 4.4 6.5 7.6 11.4 8.7z"/><path d="m32.8 10.7c-.1-.2-.2-.4-.3-.6-.2-.6-.5-1.1-.8-1.6-.1-.2-.2-.4-.3-.5 0-.1-.1-.1-.1-.2-3.1-4.7-8.3-7.8-14.3-7.8-.1 0-.3 0-.4 0h-.1c-.1 0-.2 0-.3 0s-.2 0-.2 0c-.1 0-.2 0-.3 0s-.1 0-.2 0-.2 0-.2 0c-.1 0-.1 0-.2 0s-.2 0-.2 0c-.1 0-.1 0-.2 0s-.2 0-.2 0c-.1 0-.1 0-.2 0s-.2 0-.2 0c-.1 0-.1 0-.2 0s-.1 0-.2 0-.1 0-.2 0-.1 0-.2 0-.1 0-.2 0-.1 0-.2.1c-.1 0-.1 0-.2 0s-.1 0-.2.1c-.1 0-.1 0-.2.1-.1 0-.1 0-.2.1-.1 0-.1 0-.2.1-.1 0-.1 0-.2.1-.1 0-.1 0-.2.1-.1 0-.1 0-.2.1-.1 0-.1 0-.2.1-.1 0-.1.1-.2.1s-.1 0-.2.1c-.1 0-.1.1-.2.1s-.1 0-.2.1-.2.1-.4.2c-.1 0-.1.1-.2.1s-.1.1-.2.1-.1.1-.2.1-.1.1-.2.1-.1.1-.2.1c.1 0 .1 0 0 0s-.1.1-.2.1-.1.1-.2.1-.1.1-.2.1c0 0-.1.1-.1.1 0 .1-.1.1-.2.1 0 0-.1.1-.1.1-.1 0-.1.1-.2.1 0 0-.1.1-.1.1-.1.1-.2.1-.2.2 0 0-.1.1-.1.1-.1 0-.2.1-.3.1 0 0-.1.1-.1.1-.1 0-.1.1-.2.1 0 0-.1.1-.1.1-.1.1-.1.1-.2.2 0 0-.1.1-.1.1-.1 0-.1.1-.2.1 0 .1-.1.1-.1.1-.1.1-.1.1-.2.2 0 0 0 0-.1.1 0 0-.1.1-.2.2-.7.6-1.3 1.2-1.8 1.9-.1.1-.2.2-.2.3-.1.1-.2.2-.3.3-.1.2-.1.2-.2.3v.1c-.1.1-.2.2-.2.3v.1c-.1 0-.2.1-.2.2-.1.1-.2.2-.2.3-.1.2-.2.3-.2.4-.1.1-.2.2-.2.3-.7 1.4-1.3 2.8-1.6 4.4 0 .1-.1.3-.1.4 0 .1 0 .3-.1.4 0 .1 0 .3-.1.4v.4.4l8.8-2.2-8.9 4.7c.1 1.1.2 2.1.5 3.1l13.3-8.1-3.7.1 17-6.8-5.3 22.5-.2-5.7-3.8 11c1 0 1.9-.2 2.8-.4l.9-3.7-.1 3.5c6.6-1.8 11.6-7.6 12.3-14.6 0 0 0 0 0-.1s0-.2 0-.3 0-.1 0-.2 0-.2 0-.2c0-.1 0-.1 0-.2s0-.2 0-.3v-.1c0-.1 0-.3 0-.4.3-2.2-.1-4.3-.9-6.3z"/></g></svg>

<?xml version="1.0" encoding="utf-8"?>
<!-- Generator: Adobe Illustrator 27.4.0, SVG Export Plug-In . SVG Version: 6.00 Build 0)  -->
<svg version="1.1" id="Layer_1" xmlns="http://www.w3.org/2000/svg" xmlns:xlink="http://www.w3.org/1999/xlink" x="0px" y="0px"
	 viewBox="0 0 34 34" style="enable-background:new 0 0 34 34;" xml:space="preserve">
<style type="text/css">
	.st0{fill:#1E1E1E;}
</style>
<g>
	<path class="st0" d="M13.4,33.7l12.4-26L2,25C4.3,29.4,8.5,32.6,13.4,33.7z"/>
	<path class="st0" d="M32.8,10.7c-0.1-0.2-0.2-0.4-0.3-0.6C32.3,9.5,32,9,31.7,8.5c-0.1-0.2-0.2-0.4-0.3-0.5c0-0.1-0.1-0.1-0.1-0.2
		C28.2,3.1,23,0,17,0c-0.1,0-0.3,0-0.4,0c0,0-0.1,0-0.1,0c-0.1,0-0.2,0-0.3,0C16.1,0,16,0,16,0c-0.1,0-0.2,0-0.3,0
		c-0.1,0-0.1,0-0.2,0c-0.1,0-0.2,0-0.2,0c-0.1,0-0.1,0-0.2,0c-0.1,0-0.2,0-0.2,0c-0.1,0-0.1,0-0.2,0c-0.1,0-0.2,0-0.2,0
		c-0.1,0-0.1,0-0.2,0c-0.1,0-0.2,0-0.2,0c-0.1,0-0.1,0-0.2,0c-0.1,0-0.1,0-0.2,0c-0.1,0-0.1,0-0.2,0c-0.1,0-0.1,0-0.2,0
		c-0.1,0-0.1,0-0.2,0c-0.1,0-0.1,0-0.2,0.1c-0.1,0-0.1,0-0.2,0c-0.1,0-0.1,0-0.2,0.1c-0.1,0-0.1,0-0.2,0.1c-0.1,0-0.1,0-0.2,0.1
		c-0.1,0-0.1,0-0.2,0.1c-0.1,0-0.1,0-0.2,0.1c-0.1,0-0.1,0-0.2,0.1c-0.1,0-0.1,0-0.2,0.1c-0.1,0-0.1,0-0.2,0.1
		c-0.1,0-0.1,0.1-0.2,0.1c-0.1,0-0.1,0-0.2,0.1c-0.1,0-0.1,0.1-0.2,0.1c-0.1,0-0.1,0-0.2,0.1c-0.1,0.1-0.2,0.1-0.4,0.2
		c-0.1,0-0.1,0.1-0.2,0.1c-0.1,0-0.1,0.1-0.2,0.1c-0.1,0-0.1,0.1-0.2,0.1c-0.1,0-0.1,0.1-0.2,0.1c-0.1,0-0.1,0.1-0.2,0.1
		C9,2,9,2,8.9,2c-0.1,0-0.1,0.1-0.2,0.1c-0.1,0-0.1,0.1-0.2,0.1c-0.1,0-0.1,0.1-0.2,0.1c0,0-0.1,0.1-0.1,0.1C8.2,2.5,8.1,2.5,8,2.5
		c0,0-0.1,0.1-0.1,0.1c-0.1,0-0.1,0.1-0.2,0.1c0,0-0.1,0.1-0.1,0.1C7.5,2.9,7.4,2.9,7.4,3c0,0-0.1,0.1-0.1,0.1
		C7.2,3.1,7.1,3.2,7,3.2c0,0-0.1,0.1-0.1,0.1c-0.1,0-0.1,0.1-0.2,0.1c0,0-0.1,0.1-0.1,0.1C6.5,3.6,6.5,3.6,6.4,3.7
		c0,0-0.1,0.1-0.1,0.1C6.2,3.8,6.2,3.9,6.1,3.9C6.1,4,6,4,6,4C5.9,4.1,5.9,4.1,5.8,4.2c0,0,0,0-0.1,0.1C5.7,4.3,5.6,4.4,5.5,4.5
		c0,0,0,0,0,0C4.8,5.1,4.2,5.7,3.7,6.4c0,0,0,0,0,0C3.6,6.5,3.5,6.6,3.5,6.7c0,0,0,0,0,0C3.4,6.8,3.3,6.9,3.2,7c0,0,0,0,0,0
		C3.1,7.2,3.1,7.2,3,7.3c0,0,0,0,0,0.1C2.9,7.5,2.8,7.6,2.8,7.7c0,0,0,0,0,0.1C2.7,7.8,2.6,7.9,2.6,8c0,0,0,0,0,0
		C2.5,8.1,2.4,8.2,2.4,8.3c0,0,0,0,0,0C2.3,8.5,2.2,8.6,2.2,8.7c0,0,0,0,0,0C2.1,8.8,2,8.9,2,9c0,0,0,0,0,0
		c-0.7,1.4-1.3,2.8-1.6,4.4c0,0,0,0,0,0c0,0.1-0.1,0.3-0.1,0.4c0,0,0,0,0,0c0,0.1,0,0.3-0.1,0.4c0,0,0,0,0,0c0,0.1,0,0.3-0.1,0.4
		c0,0,0,0,0,0c0,0.1,0,0.3,0,0.4c0,0,0,0,0,0c0,0.1,0,0.3,0,0.4c0,0,0,0,0,0l8.8-2.2L0,17.9C0.1,19,0.2,20,0.5,21l13.3-8.1L10.1,13
		l17-6.8l-5.3,22.5L21.6,23l-3.8,11c1,0,1.9-0.2,2.8-0.4l0.9-3.7l-0.1,3.5c6.6-1.8,11.6-7.6,12.3-14.6c0,0,0,0,0-0.1
		c0-0.1,0-0.2,0-0.3c0-0.1,0-0.1,0-0.2c0-0.1,0-0.2,0-0.2c0-0.1,0-0.1,0-0.2c0-0.1,0-0.2,0-0.3c0,0,0-0.1,0-0.1c0-0.1,0-0.3,0-0.4
		c0,0,0,0,0,0C34,14.8,33.6,12.7,32.8,10.7z"/>
</g>
</svg>
